packages/assets/static/images/icons/truck-trailer.svg

<svg width="24" height="24" viewBox="0 0 24 24" xmlns="http://www.w3.org/2000/svg">
<g clip-path="url(#clip0_2076_2384)">
<path d="M21 9.07207V8.99707C20.9985 7.60514 20.4449 6.27065 19.4607 5.2864C18.4764 4.30216 17.1419 3.74856 15.75 3.74707H15C14.6022 3.74707 14.2206 3.90511 13.9393 4.18641C13.658 4.46771 13.5 4.84925 13.5 5.24707V16.4971H12V6.74707C12 6.54816 11.921 6.35739 11.7803 6.21674C11.6397 6.07609 11.4489 5.99707 11.25 5.99707H1.5C1.10218 5.99707 0.720644 6.15511 0.43934 6.43641C0.158035 6.71771 0 7.09925 0 7.49707L0 17.2471C0.000684974 17.8561 0.186745 18.4506 0.533445 18.9514C0.880144 19.4521 1.37106 19.8355 1.94092 20.0505C2.51078 20.2656 3.13259 20.302 3.72368 20.1551C4.31477 20.0082 4.84713 19.6848 5.25 19.228C5.6101 19.6371 6.07485 19.9404 6.59431 20.1052C7.11378 20.2701 7.66834 20.2903 8.19845 20.1638C8.72856 20.0372 9.21417 19.7687 9.60315 19.3869C9.99213 19.0052 10.2698 18.5247 10.4062 17.9971H18.0938C18.2751 18.7054 18.7089 19.3232 19.3137 19.7342C19.9185 20.1452 20.6525 20.3212 21.3779 20.2291C22.1033 20.137 22.7701 19.7831 23.2529 19.234C23.7358 18.6848 24.0014 17.9783 24 17.2471V12.7471C23.9989 11.8829 23.7 11.0455 23.1535 10.3761C22.607 9.70666 21.8465 9.24611 21 9.07207ZM15 5.24707H15.75C16.7446 5.24707 17.6984 5.64216 18.4016 6.34542C19.1049 7.04868 19.5 8.00251 19.5 8.99707V9.74707C19.5 9.94598 19.579 10.1367 19.7197 10.2774C19.8603 10.4181 20.0511 10.4971 20.25 10.4971C20.8467 10.4971 21.419 10.7341 21.841 11.1561C22.2629 11.578 22.5 12.1503 22.5 12.7471V14.6511C22.0447 14.3859 21.527 14.2464 21 14.2471C20.3349 14.2477 19.6888 14.4689 19.1629 14.8761C18.637 15.2832 18.261 15.8533 18.0938 16.4971H15V5.24707ZM10.5 7.49707V16.4971H10.4062C10.2698 15.9694 9.99213 15.4889 9.60315 15.1072C9.21417 14.7255 8.72856 14.4569 8.19845 14.3303C7.66834 14.2038 7.11378 14.224 6.59431 14.3889C6.07485 14.5538 5.6101 14.857 5.25 15.2661C4.79305 14.7449 4.16925 14.3986 3.48524 14.2865C2.80123 14.1743 2.09949 14.3032 1.5 14.6511V7.49707H10.5ZM3 18.7471C2.70333 18.7471 2.41332 18.6591 2.16664 18.4943C1.91997 18.3295 1.72771 18.0952 1.61418 17.8211C1.50065 17.547 1.47094 17.2454 1.52882 16.9544C1.5867 16.6635 1.72956 16.3962 1.93934 16.1864C2.14912 15.9766 2.41639 15.8338 2.70736 15.7759C2.99834 15.718 3.29994 15.7477 3.57403 15.8612C3.84811 15.9748 4.08238 16.167 4.2472 16.4137C4.41203 16.6604 4.5 16.9504 4.5 17.2471C4.5 17.6449 4.34196 18.0264 4.06066 18.3077C3.77936 18.589 3.39782 18.7471 3 18.7471ZM7.5 18.7471C7.20333 18.7471 6.91332 18.6591 6.66665 18.4943C6.41997 18.3295 6.22771 18.0952 6.11418 17.8211C6.00065 17.547 5.97094 17.2454 6.02882 16.9544C6.0867 16.6635 6.22956 16.3962 6.43934 16.1864C6.64912 15.9766 6.91639 15.8338 7.20736 15.7759C7.49834 15.718 7.79994 15.7477 8.07403 15.8612C8.34811 15.9748 8.58238 16.167 8.7472 16.4137C8.91203 16.6604 9 16.9504 9 17.2471C9 17.6449 8.84196 18.0264 8.56066 18.3077C8.27936 18.589 7.89782 18.7471 7.5 18.7471ZM21 18.7471C20.7033 18.7471 20.4133 18.6591 20.1666 18.4943C19.92 18.3295 19.7277 18.0952 19.6142 17.8211C19.5006 17.547 19.4709 17.2454 19.5288 16.9544C19.5867 16.6635 19.7296 16.3962 19.9393 16.1864C20.1491 15.9766 20.4164 15.8338 20.7074 15.7759C20.9983 15.718 21.2999 15.7477 21.574 15.8612C21.8481 15.9748 22.0824 16.167 22.2472 16.4137C22.412 16.6604 22.5 16.9504 22.5 17.2471C22.5 17.6449 22.342 18.0264 22.0607 18.3077C21.7794 18.589 21.3978 18.7471 21 18.7471Z"/>
</g>
<defs>
<clipPath id="clip0_2076_2384">
<rect width="24" height="24"/>
</clipPath>
</defs>
</svg>

<svg viewBox="0 0 24 24" xmlns="http://www.w3.org/2000/svg" aria-hidden="true" fill="currentColor"><g clip-path="url(#a)"><path d="M21 9.072v-.075a5.256 5.256 0 0 0-5.25-5.25H15a1.5 1.5 0 0 0-1.5 1.5v11.25H12v-9.75a.75.75 0 0 0-.75-.75H1.5a1.5 1.5 0 0 0-1.5 1.5v9.75a3 3 0 0 0 5.25 1.981 3 3 0 0 0 5.156-1.23h7.688a3 3 0 0 0 5.906-.75v-4.5a3.76 3.76 0 0 0-3-3.676m-6-3.825h.75a3.75 3.75 0 0 1 3.75 3.75v.75a.75.75 0 0 0 .75.75 2.25 2.25 0 0 1 2.25 2.25v1.904a3 3 0 0 0-1.5-.404 3.005 3.005 0 0 0-2.906 2.25H15zm-4.5 2.25v9h-.094a2.999 2.999 0 0 0-5.156-1.23 2.99 2.99 0 0 0-3.75-.616V7.497zM3 18.747a1.5 1.5 0 1 1 0-3 1.5 1.5 0 0 1 0 3m4.5 0a1.5 1.5 0 1 1 0-3 1.5 1.5 0 0 1 0 3m13.5 0a1.5 1.5 0 1 1 0-3 1.5 1.5 0 0 1 0 3"/></g><defs><clipPath id="a"><path d="M0 0h24v24H0z"/></clipPath></defs></svg>
